icons/bug-smol1-16.svg

<svg width="16" height="16" viewBox="0 0 16 16" fill="none" xmlns="http://www.w3.org/2000/svg">
<path fill-rule="evenodd" clip-rule="evenodd" d="M4.71967 1.21967C5.01256 0.926777 5.48744 0.926777 5.78033 1.21967L6.77939 2.21873C7.15943 2.07729 7.57069 2 8 2C8.42931 2 8.84057 2.07729 9.22061 2.21873L10.2197 1.21967C10.5126 0.926777 10.9874 0.926777 11.2803 1.21967C11.5732 1.51256 11.5732 1.98744 11.2803 2.28033L10.505 3.05564C11.1207 3.68646 11.5 4.54893 11.5 5.5V5.82692C11.5 5.92663 11.4913 6.0243 11.4746 6.11921C11.9022 6.26457 12.272 6.53505 12.5403 6.88703L13.794 6.52886C14.1922 6.41506 14.6073 6.64568 14.7211 7.04396C14.8349 7.44224 14.6043 7.85735 14.206 7.97114L13 8.31573V10H14.25C14.6642 10 15 10.3358 15 10.75C15 11.1642 14.6642 11.5 14.25 11.5H12.9753C12.9205 12.0519 12.776 12.5773 12.5565 13.0616L13.9872 13.5385C14.3801 13.6695 14.5925 14.0942 14.4615 14.4872C14.3305 14.8801 13.9058 15.0925 13.5128 14.9615L12.0128 14.4615C11.9121 14.4279 11.8233 14.3751 11.749 14.3084C10.8329 15.3458 9.49283 16 8 16C6.50717 16 5.16714 15.3458 4.25098 14.3084C4.17673 14.3751 4.08788 14.4279 3.98717 14.4615L2.48717 14.9615C2.09421 15.0925 1.66947 14.8801 1.53849 14.4872C1.4075 14.0942 1.61987 13.6695 2.01283 13.5385L3.44346 13.0616C3.224 12.5773 3.07948 12.0519 3.02469 11.5H1.75C1.33579 11.5 1 11.1642 1 10.75C1 10.3358 1.33579 10 1.75 10H3V8.31574L1.79395 7.97114C1.39568 7.85734 1.16506 7.44222 1.27886 7.04395C1.39266 6.64568 1.80777 6.41506 2.20605 6.52886L3.45964 6.88704C3.72801 6.53506 4.09781 6.26458 4.52544 6.11921C4.50872 6.0243 4.5 5.92663 4.5 5.82692V5.5C4.5 4.54893 4.87934 3.68646 5.49498 3.05564L4.71967 2.28033C4.42678 1.98744 4.42678 1.51256 4.71967 1.21967ZM6.17308 6L9.82692 6C9.92251 6 10 5.92251 10 5.82692V5.5C10 4.39543 9.10457 3.5 8 3.5C6.89543 3.5 6 4.39543 6 5.5V5.82692C6 5.92251 6.07749 6 6.17308 6ZM5.25 7.5C4.83579 7.5 4.5 7.83579 4.5 8.25V11C4.5 12.933 6.067 14.5 8 14.5C9.933 14.5 11.5 12.933 11.5 11V8.25C11.5 7.83579 11.1642 7.5 10.75 7.5H5.25Z" fill="black"/>
</svg>

<svg xmlns="http://www.w3.org/2000/svg" width="16" height="16" viewBox="0 0 16 16"><path fill-rule="evenodd" d="M4.72 1.22a.75.75 0 011.06 0l1 .999a3.492 3.492 0 012.441 0l.999-1a.75.75 0 111.06 1.061l-.775.776c.616.63.995 1.493.995 2.444v.327c0 .1-.009.197-.025.292.427.146.797.416 1.065.768l1.254-.358a.75.75 0 11.412 1.442L13 8.316V10h1.25a.75.75 0 010 1.5h-1.275a4.967 4.967 0 01-.418 1.562l1.43.477a.75.75 0 01-.474 1.422l-1.5-.5a.748.748 0 01-.264-.153A4.988 4.988 0 018 16a4.988 4.988 0 01-3.749-1.692.748.748 0 01-.264.153l-1.5.5a.75.75 0 11-.474-1.422l1.43-.477a4.968 4.968 0 01-.418-1.562H1.75a.75.75 0 010-1.5H3V8.316L1.794 7.97a.75.75 0 01.412-1.442l1.254.358a2.255 2.255 0 011.065-.768 1.684 1.684 0 01-.025-.292V5.5c0-.951.38-1.814.995-2.444L4.72 2.28a.75.75 0 010-1.06zM6.173 6h3.654A.173.173 0 0010 5.827V5.5a2 2 0 10-4 0v.327c0 .096.077.173.173.173zM5.25 7.5a.75.75 0 00-.75.75V11a3.5 3.5 0 107 0V8.25a.75.75 0 00-.75-.75h-5.5z"/></svg>
